Sites/Bioaqua/app/img/dest/steps/image(2).svg

<svg width="84" height="119" viewBox="0 0 84 119" fill="none" xmlns="http://www.w3.org/2000/svg">
<path d="M11.9607 74.1492C5.24868 71.3555 4.20809 57.454 6.15701 57.1446M11.9607 74.1492C10.7917 68.4698 10.4868 62.6901 10.9973 57.1446M11.9607 74.1492C13.2774 80.5465 15.6905 86.8166 19.2695 92.4812M6.15701 57.1446C6.15701 57.1446 4.58807 49.6584 6.15698 34.151C6.41795 31.5716 7.13326 29.14 8.22444 26.8786M6.15701 57.1446H10.9973M77.384 26.8786C73.3571 18.0849 67.3703 12.9348 58.8713 10.4176C54.3466 9.07754 49.11 8.48374 43.0779 8.48374C41.6147 8.48374 40.147 8.5559 38.6851 8.69733M10.9973 57.1446C12.5778 39.9753 21.9748 25.0517 37.7438 22.3039M10.9973 57.1446C15.1026 50.7251 18.4601 50.47 24.8522 49.3375C31.2443 48.205 37.7438 42.0651 37.7438 42.0651M38.6851 8.69733C33.0371 13.0825 34.5014 19.9271 37.7438 22.3039M38.6851 8.69733C34.8914 9.06437 31.1364 9.89794 27.5984 11.1477C26.6669 11.4767 32.1571 9.63773 31.259 10.0236M37.7438 22.3039C39.448 22.0069 41.2267 21.8521 43.0779 21.8521C60.4719 21.8521 71.4564 35.5135 74.5192 52.439M43.0779 14.2589V17.6812M78.8483 30.4079L80.1034 33.5094M80.731 36.7178C80.731 36.7178 80.731 49.8192 80.731 58.2141M80.731 58.2141C84.2131 63.2148 77.1287 78.2274 74.0593 74.7909M80.731 58.2141C78.5892 58.2141 75.2467 58.2141 75.2467 58.2141M74.0593 74.7909C74.1058 74.5771 74.1511 74.3632 74.1951 74.1492C75.2892 68.8339 75.6264 63.4308 75.2467 58.2141M74.0593 74.7909C71.6952 85.6546 66.1538 96.104 57.0932 103.787M75.2467 58.2141C75.1043 56.258 74.8611 54.3282 74.5192 52.439M43.0779 26.8786C43.534 29.0007 43.7039 30.6883 43.6284 32.119M39.8356 39.9262C42.0375 37.2694 43.458 35.3482 43.6284 32.119M43.6284 32.119C59.3628 33.7908 64.7817 40.5343 74.5192 52.439M29.0627 117.677C30.9119 115.438 33.155 112.252 31.2857 103.6C35.268 106.977 37.707 110.007 43.0779 112.115C48.4489 110.007 53.1109 107.164 57.0932 103.787M57.0932 103.787C55.6764 109.983 54.6819 113.565 57.0932 117.677M8.22444 26.8786C10.4154 22.3381 14.1216 18.4833 18.7081 15.4935C20.6187 14.2481 29.0888 10.9558 31.259 10.0236M8.22444 26.8786C8.22444 26.8786 0.036914 26.4748 2.44244 17.2533C4.84796 8.03178 16.8567 2.00002 24.8517 2C30.8915 1.99998 31.259 10.0236 31.259 10.0236M19.2695 92.4812C18.2666 92.9482 17.1541 93.3642 15.9107 93.7605C22.9327 96.6814 26.0889 100.086 28.5663 107.664C31.0521 98.7293 33.5929 95.9531 39.8622 94.4022C32.4811 91.2297 30.0921 87.2131 28.2526 79.7505C26.1803 87.1044 23.8837 90.3326 19.2695 92.4812ZM13.6097 101.247V108.091M13.6097 112.115V119M77.6199 98.874H84M11.3087 110.103H4.6148M75.3189 90.0174V96.862M75.3189 100.886V107.771M73.0179 98.874H66.324" stroke="#2F7271" stroke-width="4"/>
</svg>

<svg width="84" height="119" fill="none" xmlns="http://www.w3.org/2000/svg"><path d="M11.96 74.15c-6.71-2.795-7.751-16.697-5.802-17.006m5.804 17.004a58.235 58.235 0 01-.964-17.004m.964 17.004c1.316 6.397 3.73 12.668 7.309 18.332M6.157 57.145s-1.569-7.487 0-22.994c.261-2.58.976-5.011 2.067-7.272M6.157 57.145h4.84m66.387-30.266c-4.027-8.794-10.014-13.944-18.513-16.461-4.524-1.34-9.761-1.934-15.793-1.934-1.463 0-2.931.072-4.393.213M10.997 57.145c1.58-17.17 10.978-32.093 26.747-34.841m-26.747 34.84c4.106-6.419 7.463-6.674 13.855-7.806 6.392-1.133 12.892-7.273 12.892-7.273m.941-33.368c-5.648 4.386-4.184 11.23-.941 13.607m.941-13.607a47.029 47.029 0 00-11.087 2.45c-.931.33 4.56-1.51 3.661-1.123m6.485 12.28a31.028 31.028 0 015.334-.452c17.394 0 28.378 13.662 31.441 30.587m-31.441-38.18v3.422m35.77 12.727l1.255 3.101m.628 3.209v21.496m0 0c3.482 5-3.602 20.013-6.672 16.577m6.672-16.577h-5.484m-1.188 16.577a58.333 58.333 0 001.187-16.577M74.06 74.791c-2.364 10.864-7.905 21.313-16.966 28.996m18.154-45.573a54.782 54.782 0 00-.728-5.775m-31.441-25.56c.456 2.122.626 3.81.55 5.24m-3.792 7.807c2.202-2.657 3.622-4.578 3.792-7.807m0 0c15.735 1.672 21.154 8.415 30.891 20.32m-45.456 65.238c1.849-2.239 4.092-5.425 2.223-14.077 3.982 3.377 6.421 6.407 11.792 8.515 5.37-2.108 10.033-4.951 14.015-8.328m0 0c-1.417 6.196-2.411 9.778 0 13.89M8.224 26.879c2.191-4.54 5.898-8.396 10.484-11.386 1.91-1.245 10.38-4.537 12.551-5.47M8.224 26.88s-8.187-.404-5.782-9.626C4.848 8.032 16.857 2 24.852 2c6.04 0 6.407 8.024 6.407 8.024M19.269 92.48c-1.002.467-2.115.883-3.358 1.28 7.022 2.92 10.178 6.325 12.655 13.903 2.486-8.935 5.027-11.71 11.296-13.262-7.38-3.172-9.77-7.189-11.61-14.651-2.072 7.353-4.368 10.582-8.982 12.73zm-5.66 8.766v6.844m0 4.024V119m64.01-20.126H84m-72.691 11.229H4.615m70.704-20.086v6.845m0 4.024v6.885m-2.301-8.897h-6.694" stroke="#2F7271" stroke-width="4"/></svg>
